X: 0
T:Lantzens julpolska
N:
L:1/8
Q:230
M:3/4
K:G
^G/ | ^G3/2E/ ^C2 CC | C3/2^C/ ^D3C | ^C3/2E/ ^G2 BA | 
F2 ^G3G | ^G3/2E/ ^C2 CC | C3/2^C/ ^D3C | ^C3/2E/ ^G2 BA | 
F2 ^G3G | ^G3/2F/ E2 GB | B3/2A/ FA ^G3/2G/ | ^GF E2 GB | 
                          B3/2A/ FA ^G3/2G/ | ^GF E2 EE | ^D2 ^C4 |
